X:12743
T:Padraig O'Keeffes
R:slide
D:Maire O'Keefe
Z:id:hn-slide-45
M:6/8
K:G
dBA G2A|BGE E2B|dBA GBA|GED D2B|dBG G2B|dBG e/f/ge|
dBA GBA|1 GED D2B:|2 GED D2f||~g3 e2f|~g3 e2f|gfe a2g|
~f3 def|g2e a2f|gfe d2e|dBG GBA|1 GED D2f:|2 GED D2B||
